X:5498
T:Reel of Stumpie (Wap an' Rowe)
O:england
M:4/4
L:1/8
R:Reel
K:A
d2|"A"c2 e2 a4|"A"agfe a4|"A"c2 e2 a2 ga|"E"b2 B2 B3 d|"A"c2 e2 a4|"A"ag
fe a4|"A"c2 e2 "E"B3 d|
"A"c2 A2 A2:|
|:d2|"A" c2 e2 e2 dc|"D"d2 f2 f2 ed|"A"c2 e2 fecA|"E"c2 B2 B2 ed|"A"c2 e
2 e2 dc|"D"d2 f2 f
2 ed|"A"c2 a2 "E"B3 d|"A"c2 A2 A2:||


